symbols/web/savings/materialsymbolsoutlined/savings_wght300grad200fill1_40px.svg

<svg xmlns="http://www.w3.org/2000/svg" height="40" width="40"><path d="M26.25 18.5q.75 0 1.292-.542.541-.541.541-1.291 0-.75-.541-1.292-.542-.542-1.292-.542t-1.292.542q-.541.542-.541 1.292t.541 1.291q.542.542 1.292.542Zm-13.542-3.417h9.084v-2.666h-9.084ZM7.792 34.5q-1.25-4.25-2.021-7.167-.771-2.916-1.209-5-.437-2.083-.624-3.583-.188-1.5-.188-2.917 0-3.625 2.521-6.166 2.521-2.542 6.187-2.542h8.584q1.208-1.542 2.896-2.437 1.687-.896 3.52-.896.959 0 1.5.479.542.479.542 1.354 0 .167-.062.417-.063.25-.105.458-.166.417-.333 1.021-.167.604-.333 1.354l4.125 4.083h3.416V23.75l-4.666 1.542L28.75 34.5H20.5v-3.333h-4.375V34.5Z"/></svg>

<svg xmlns="http://www.w3.org/2000/svg" height="40" width="40"><path d="M26.25 18.5Q27 18.5 27.542 17.958Q28.083 17.417 28.083 16.667Q28.083 15.917 27.542 15.375Q27 14.833 26.25 14.833Q25.5 14.833 24.958 15.375Q24.417 15.917 24.417 16.667Q24.417 17.417 24.958 17.958Q25.5 18.5 26.25 18.5ZM12.708 15.083H21.792V12.417H12.708ZM7.792 34.5Q6.542 30.25 5.771 27.333Q5 24.417 4.562 22.333Q4.125 20.25 3.938 18.75Q3.75 17.25 3.75 15.833Q3.75 12.208 6.271 9.667Q8.792 7.125 12.458 7.125H21.042Q22.25 5.583 23.938 4.688Q25.625 3.792 27.458 3.792Q28.417 3.792 28.958 4.271Q29.5 4.75 29.5 5.625Q29.5 5.792 29.438 6.042Q29.375 6.292 29.333 6.5Q29.167 6.917 29 7.521Q28.833 8.125 28.667 8.875L32.792 12.958H36.208V23.75L31.542 25.292L28.75 34.5H20.5V31.167H16.125V34.5Z"/></svg>
